!!!COM: Mozart, Wolfgang Amadeus
!!!OTL: Musikalische Würfelspiele, Kontre-Tänze
!!!SCA: K<sup>6</sup> Anh. C30.01 (K<sup>3</sup> Anh. 294d)
**kern	**kern
*staff2	*staff2
*clefF4	*clefG2
*M2/4	*M2/4
*MM110	*MM110
*>[A,A1,A,A2,B]	*>[A,A1,A,A2,B]
*>norep[A,A2,B]	*>norep[A,A2,B]
*>A	*>A
=105	=105
4C	16cc
.	16b
.	16cc
.	16dd
4C	16ee
.	16dd
.	16ee
.	16ff
=81	=81
4C	8cc
.	8g
4r	8cc
.	8ee
=164	=164
16GG	8b
16AA	.
16BB	8b
16C	.
16D	8g
16E	.
16F	8g
16D	.
=35	=35
4C	16cc
.	16dd
.	16ee
.	16dd
4CC	16cc
.	16ee
.	16gg
.	16cc
=147	=147
4D	16dd
.	16ee
.	16ff#
.	16gg
4F#	16aa
.	16ff#
.	16ee
.	16dd
=123	=123
4G	8gg
.	8dd
4GG	8b
.	8g
=49	=49
4C	16ee
.	16cc
.	16b
.	16a
8D	16g
.	16b
8DD	16f#
.	16a
=115	=115
*>A1	*>A1
4GG	4g 4b 4gg
16G	4r
16F	.
16E	.
16D	.
=115:|!	=115:|!
*>A2	*>A2
4GG	4g 4b 4gg
16GG	4r
16AA	.
16BB	.
16C#	.
=4||	=4||
*>B	*>B
4D	8d
.	8dd
4C 4D	8ff#
.	8aa
=79	=79
4BB 4G	8gg
.	16bb
.	16gg
4GG	8dd
.	16gg
.	16dd
=87	=87
4C	8ee
.	16cc
.	16ee
4r	8gg
.	16ee
.	16cc
=84	=84
16GG	8dd
16BB	.
16D	8b
16G	.
16GG	4g
16F	.
16E	.
16D	.
=75	=75
16C	4cc
16GG	.
16AA	.
16BB	.
16C	8cc
16GG	.
16AA	8cc
16BB	.
=80	=80
4C	8cc
.	8ee
4r	8ee
.	8ee
=154	=154
4G	8ff
.	8dd
4GG	8cc
.	8b
=127	=127
4C	4cc
4CC	4c
==	==
*-	*-
